!!!!SEGMENT: pl-kk--kk-i-31--005_anonim--missa-agnus-dei.krn
!!!id: 17xx:2235
!!!COM: Anonim
!!!COM-rism: pe30004985
!!!CDT:
!!!CNT:
!!!OTL: Missa – Agnus Dei
!!!PDT:
!!!SMS-siglum: PL-Kk
!!!SMS-shelfmark: Kk.I.31
!!!NIFC-rismID: 1001156550
!!!URL-scan: http://repozytorium.nifc.pl/skany/pl-kk-nut--i-31
!!!ONB-nifc: UWAGA: części Mszy: 1. Kyrie, 2. Et in terra, 3. Patrem, 4. Sanctus, 5. Agnus Dei
!!!SMS-variant:
!!!SMS-altvar:
**kern	**text	**kern	**text	**kern	**text	**kern	**text	**kern	**text
*part5	*part5	*part4	*part4	*part3	*part3	*part2	*part2	*part1	*part1
*staff5	*staff5	*staff4	*staff4	*staff3	*staff3	*staff2	*staff2	*staff1	*staff1
*I"Baſso Ripieno	*	*I"Baſso.	*	*I"Tenore	*	*I"Alto	*	*I"Canto	*
*I'b rip	*	*I'B	*	*I'T	*	*I'A	*	*I'S	*
*clefF4	*	*clefF4	*	*clefC4	*	*clefC3	*	*clefC1	*
*k[]	*	*k[]	*	*k[]	*	*k[]	*	*k[]	*
*M2/1	*	*M2/1	*	*M2/1	*	*M2/1	*	*M2/1	*
*met(c)	*	*met(c)	*	*met(c)	*	*met(c)	*	*met(c)	*
=1-	=1-	=1-	=1-	=1-	=1-	=1-	=1-	=1-	=1-
*all\right	*	*all\right	*	*all\right	*	*all\right	*	*all\right	*
*2\right	*	*2\right	*	*2\right	*	*2\right	*	*2\right	*
!LO:TX:t=P:problem:kreska pseudotaktowa	!	!	!	!	!	!	!	!	!
!LO:TX:a:i:t=1mum	!	!LO:TX:t=P:problem:kreska pseudotaktowa	!	!	!	!	!	!LO:TX:t=P:problem:kreska pseudotaktowa	!
1rA	.	1rD	.	4r	.	2c/	A-	0r	.
.	.	.	.	2c\	A-	.	.	.	.
!	!	!	!	!	!	!LO:TX:t=P:problem:kreska pseudotaktowa	!	!	!
.	.	.	.	.	.	2d\	-gnus	.	.
!	!	!	!	!LO:TX:t=P:problem:kreska pseudotaktowa	!	!	!	!	!
.	.	.	.	4B\	-gnus	.	.	.	.
2C/	A-	2C/	A-	8c\L	De-	(>2e\	De-	.	.
.	.	.	.	8B\	.	.	.	.	.
.	.	.	.	8A\	.	.	.	.	.
.	.	.	.	8G\J	.	.	.	.	.
!LO:TX:t=P:problem:kreska pseudotaktowa	!	!LO:TX:t=P:problem:kreska pseudotaktowa	!	!	!	!LO:TX:t=P:problem:kreska pseudotaktowa	!	!	!
2D\	-gnus	2D\	-gnus	8F/L	.	2f\)	.	.	.
.	.	.	.	8D/J	.	.	.	.	.
!	!	!	!	!LO:TX:t=P:problem:kreska pseudotaktowa	!	!	!	!	!
.	.	.	.	4d\	-i	.	.	.	.
=2-	=2-	=2-	=2-	=2-	=2-	=2-	=2-	=2-	=2-
2E\	De-	2E\	De-	4B\	qui	(>2g\	-i	2r	.
.	.	.	.	4e\	.	.	.	.	.
!LO:TX:t=P:problem:kreska pseudotaktowa	!	!LO:TX:t=P:problem:kreska pseudotaktowa	!	!	!	!LO:TX:t=P:problem:kreska pseudotaktowa	!	!	!
2F\	.	2F\	.	4c\	tol-	2a\)	.	4r	.
*	*	*	*	*	*	*	*	*2\right	*
.	.	.	.	8A\	-lis	.	.	2cc\	A-
!	!	!	!	!LO:TX:t=P:problem:kreska pseudotaktowa	!	!	!	!	!
.	.	.	.	8A\	pec-	.	.	.	.
2G\	.	2G\	.	4.d\	-ca-	4r	.	.	.
.	.	.	.	.	.	4g\	qui	4b\	-gnus
.	.	.	.	8d\	-ta	.	.	.	.
4A,\	-i	4A\	-i	4c\	mun-	4e\	tol-	8cc\L	De-
.	.	.	.	.	.	.	.	8b\	.
!LO:TX:t=P:problem:kreska pseudotaktowa	!	!LO:TX:t=P:problem:kreska pseudotaktowa	!	!LO:TX:t=P:problem:kreska pseudotaktowa	!	!	!	!	!
4A\	qui	4A\	qui	4e\	.	8c\	-lis	8a\	.
!	!	!	!	!	!	!LO:TX:t=P:problem:kreska pseudotaktowa	!	!LO:TX:t=P:problem:kreska pseudotaktowa	!
.	.	.	.	.	.	8c\	pec-	8g\J	.
=3-	=3-	=3-	=3-	=3-	=3-	=3-	=3-	=3-	=3-
!	!	!	!	!	!	!	!	!LO:TX:t=P:problem:mixed beam	!
4F\	tol-	4F\	tol-	4A\	-di	4.f\	-ca-	8a\L	.
.	.	.	.	.	.	.	.	8d/J	.
8D\	-lis	8D\	-lis	8A\	Mi-	.	.	4.dd\	.
8D\	pec-	8D\	pec-	8A\	-ſe-	8f\	-ta	.	.
!	!	!LO:LB:g=original	!	!	!	!LO:TX:t=P:problem:kreska pseudotaktowa	!	!	!
4.G\	-ca-	4.G\	-ca-	8B\	-re-	2g\	mun-	.	.
.	.	.	.	8c\	-re	.	.	8cc\	.
!	!	!	!	!	!	!	!	!LO:TX:t=P:problem:kreska pseudotaktowa	!
.	.	.	.	8d\	mi-	.	.	4b\	.
!LO:TX:t=P:problem:kreska pseudotaktowa	!	!LO:TX:t=P:problem:kreska pseudotaktowa	!	!LO:TX:t=P:problem:kreska pseudotaktowa	!	!	!	!	!
8F\	.	8G\	-ta	8B\	-se-	.	.	.	.
!	!	!	!	!	!	!	!	!LO:LB:g=original	!
2E,<\	-ta	2E\	mun-	8e\L	-re-	2g\	-di	4cc\	-i
.	.	.	.	8d\	.	.	.	.	.
.	.	.	.	8c\	.	.	.	4ee\	qui
.	.	.	.	8B\J	.	.	.	.	.
!LO:TX:t=P:problem:kreska pseudotaktowa	!	!LO:TX:t=P:problem:kreska pseudotaktowa	!	!	!	!	!	!	!
!	!	!	!	!LO:LB:g=original	!	!	!	!	!
2F\	mun-	2F\	.	4A\	.	4a\	qui	4cc\	tol-
!	!	!	!	!LO:TX:t=P:problem:kreska pseudotaktowa	!	!	!	!	!
!	!	!	!	!	!	!LO:TX:t=P:problem:kreska pseudotaktowa	!	!	!
.	.	.	.	4c\	-re	4f\	tol-	8a\	-lis
!	!	!	!	!	!	!	!	!LO:TX:t=P:problem:kreska pseudotaktowa	!
.	.	.	.	.	.	.	.	8a\	pec-
!	!	!	!	!	!	!LO:LB:g=original	!	!	!
=4-	=4-	=4-	=4-	=4-	=4-	=4-	=4-	=4-	=4-
2G,\	-di	2G\	-di	4.B\	no-	8d\	-lis	4dd\	-ca-
.	.	.	.	.	.	8d\	pec-	.	.
.	.	.	.	.	.	4.g\	-ca-	4b\	-ta
.	.	.	.	8c\	.	.	.	.	.
!LO:LB:g=original	!	!	!	!LO:TX:t=P:problem:kreska pseudotaktowa	!	!	!	!LO:TX:t=P:problem:kreska pseudotaktowa	!
4r	.	4r	.	2d\	.	.	.	2a\	mun-
.	.	.	.	.	.	8g\	-ta	.	.
!	!	!	!	!	!	!LO:TX:t=P:problem:kreska pseudotaktowa	!	!	!
8D\	mi-	8D\	Mi-	.	.	4f#X\	mun-	.	.
!LO:TX:t=P:problem:kreska pseudotaktowa	!	!LO:TX:t=P:problem:kreska pseudotaktowa	!	!	!	!	!	!	!
8D\	-se-	8D\	-ſe-	.	.	.	.	.	.
8E\	-re-	8E\	-re-	4B\	-bis	2g\	-di	2g/	-di
8F\	-re	8F\	-re	.	.	.	.	.	.
8G\	mi-	8G\	Mi-	4e\	qui	.	.	.	.
8E\	-ſe-	8E\	-ſe-	.	.	.	.	.	.
!	!	!	!	!	!	!	!	!LO:TX:t=P:problem:kreska pseudotaktowa	!
8A\L	-re-	8A\L	-re-	4c\	tol-	4r	.	2r	.
8G\	.	8G\	.	.	.	.	.	.	.
8F\	.	8F\	.	2A/	-lis	8c\	Mi-	.	.
!LO:TX:t=P:problem:kreska pseudotaktowa	!	!LO:TX:t=P:problem:kreska pseudotaktowa	!	!	!	!LO:TX:t=P:problem:kreska pseudotaktowa	!	!	!
8E\J	.	8E\J	.	.	.	8c\	-ſe-	.	.
=5-	=5-	=5-	=5-	=5-	=5-	=5-	=5-	=5-	=5-
4.D\	.	4.D\	-re	.	.	8d\	-re-	4r	.
.	.	.	.	.	.	8e\	-re	.	.
.	.	.	.	4A/	pec-	8f\ny	mi-	4dd\	qui
8D\	-re	8D\	.	.	.	8d\	-se-	.	.
!LO:TX:t=P:problem:kreska pseudotaktowa	!	!LO:TX:t=P:problem:kreska pseudotaktowa	!	!	!	!	!	!	!
2E\	no-	2E\	no-	4G/	-ca-	8.g\L	-re-	4b\	tol-
.	.	.	.	.	.	16f\K	.	.	.
!	!	!	!	!LO:TX:t=P:problem:kreska pseudotaktowa	!	!	!	!	!
.	.	.	.	4c\	-ta	8.e\	.	8g\	-lis
!	!	!	!	!	!	!	!	!LO:TX:t=P:problem:kreska pseudotaktowa	!
.	.	.	.	.	.	.	.	8g\	pec-
!	!	!	!	!	!	!LO:TX:t=P:problem:kreska pseudotaktowa	!	!	!
.	.	.	.	.	.	16d\Jk	.	.	.
2F\	.	2F\	.	2A\	mun-	4c\	-re	8a\L	-ca-
.	.	.	.	.	.	.	.	8b\J	.
.	.	.	.	.	.	4f\	.	2cc\	-ta
!LO:TX:t=P:problem:kreska pseudotaktowa	!	!LO:TX:t=P:problem:kreska pseudotaktowa	!	!	!	!	!	!	!
2G\	.	2G\	.	2d\	.	4r	.	.	.
!	!	!	!	!	!	!LO:TX:t=P:problem:kreska pseudotaktowa	!	!LO:TX:t=P:problem:kreska pseudotaktowa	!
.	.	.	.	.	.	4g\	Qui	4b\	mun-
=6-	=6-	=6-	=6-	=6-	=6-	=6-	=6-	=6-	=6-
!	!	!	!	!LO:TX:t=P:problem:kreska pseudotaktowa	!	!	!	!	!
4C,</	-bis	4C/	-bis	1c	-di	4e\	tol-	4cc,\	-di
4c\	Qui	4c\	qui	.	.	8c\	-lis	8g\	Mi-
.	.	.	.	.	.	8c\	pec-	8g\	-ſe-
4A\	tol-	4A\	tol-	.	.	4.f\	-ca-	8a\	-re-
.	.	.	.	.	.	.	.	8b\	-re
8F\	-lis	8F\	-lis	.	.	.	.	8cc\	Mi-
!LO:TX:t=P:problem:kreska pseudotaktowa	!	!LO:TX:t=P:problem:kreska pseudotaktowa	!	!	!	!LO:TX:t=P:problem:kreska pseudotaktowa	!	!LO:TX:t=P:problem:kreska pseudotaktowa	!
8F\	pec-	8F\	pec-	.	.	8f\	-ta	8a\	-ſe-
4.G\	-ca-	4.G\	-ca-	1r	.	(>2d\	mun-	8.dd\L	-re-
.	.	.	.	.	.	.	.	16cc\K	.
.	.	.	.	.	.	.	.	8.b\	.
8F\	.	8F\	-ta	.	.	.	.	.	.
.	.	.	.	.	.	.	.	16a\Jk	.
!	!	!	!	!	!	!LO:TX:t=P:problem:kreska pseudotaktowa	!	!	!
4E\	.	4E\	.	.	.	2e\)	.	4g/	-re
!LO:TX:t=P:problem:kreska pseudotaktowa	!	!LO:TX:t=P:problem:kreska pseudotaktowa	!	!	!	!	!	!	!
4C/	-ta	4C/	mun-	.	.	.	.	2g/	no-
!LO:LB:g=original	!	!	!	!	!	!	!	!	!
=7-	=7-	=7-	=7-	=7-	=7-	=7-	=7-	=7-	=7-
2D/	mun-	2D/	.	4r	.	2d\	-di	.	.
.	.	.	.	8A\	Mi-	.	.	4f#X/	.
.	.	.	.	8A\	-ſe-	.	.	.	.
!LO:TX:t=P:problem:kreska pseudotaktowa	!	!LO:TX:t=P:problem:kreska pseudotaktowa	!	!	!	!	!	!LO:TX:t=P:problem:kreska pseudotaktowa	!
2GG/	-di	2GG/	-di	8B\	-re-	4d,<\	.	2g/	-bis
.	.	.	.	8c\	-re	.	.	.	.
.	.	.	.	8d\	Mi-	8d\	Mi-	.	.
!	!	!	!	!LO:TX:t=P:problem:kreska pseudotaktowa	!	!LO:TX:t=P:problem:kreska pseudotaktowa	!	!	!
.	.	.	.	8B\	-ſe-	8d\	-ſe-	.	.
!	!	!LO:LB:g=original	!	!	!	!LO:LB:g=original	!	!LO:LB:g=original	!
4r	.	4r	.	4.c\	-re-	8e\	-re-	4r	.
.	.	.	.	.	.	8f\	-re	.	.
8C/	mi-	8C\	Mi-	.	.	8g\	mi-	8e/	Mi-
8C/	-ſe-	8C\	-ſe-	8c\	-re	8e\	-ſe-	8e/	-ſe-
8D\	-re-	8D\	-re-	2A/	no-	4.d\	-re-	8f#/	-re-
8E,\	-re	8E\	-re	.	.	.	.	8g/	-re
*	*ij	*	*	*	*	*	*	*	*
8F\	mi-	8F\	Mi-	.	.	.	.	8a\	Mi-
!LO:TX:t=P:problem:kreska pseudotaktowa	!	!LO:TX:t=P:problem:kreska pseudotaktowa	!	!	!	!LO:TX:t=P:problem:kreska pseudotaktowa	!	!LO:TX:t=P:problem:kreska pseudotaktowa	!
8D\	-ſe-	8D\	-ſe-	.	.	8d\	-re	8f#/	-ſe-
=8-	=8-	=8-	=8-	=8-	=8-	=8-	=8-	=8-	=8-
2E\	-re-	2E\	-re-	2G/	.	2B/	no-	2.g/	-re-
!LO:TX:t=P:problem:kreska pseudotaktowa	!	!	!	!	!	!LO:TX:t=P:problem:kreska pseudotaktowa	!	!	!
2C/	-re	2C/	-re	2.c\	.	2e\	.	.	.
*	*Xij	*	*	*	*	*	*	*	*
.	.	.	.	.	.	.	.	4g/	-re
2G\	no-	1GG	no-	.	.	1d	-bis	1g	no-
.	.	.	.	8B\L	.	.	.	.	.
.	.	.	.	8A\J	.	.	.	.	.
!LO:TX:t=P:problem:kreska pseudotaktowa	!	!	!	!	!	!	!	!	!
2GG/	.	.	.	2B\	-bis	.	.	.	.
=9-	=9-	=9-	=9-	=9-	=9-	=9-	=9-	=9-	=9-
!LO:TX:t=P:problem:podwójna kreska pseudotaktowa	!	!LO:TX:t=P:problem:podwójna kreska pseudotaktowa	!	!	!	!LO:TX:t=P:problem:podwójna kreska pseudotaktowa	!	!LO:TX:t=P:problem:podwójna kreska pseudotaktowa	!
0C;>	-bis.	0C	-bis.	0c	.	0e	.	0g	-bis.
!LO:LB:g=original	!	!	!	!	!	!	!	!	!
=10||-	=10||-	=10||-	=10||-	=10||-	=10||-	=10||-	=10||-	=10||-	=10||-
*M2/1	*	*M2/1	*	*M2/1	*	*M2/1	*	*M2/1	*
*met(c)	*	*met(c)	*	*met(c)	*	*met(c)	*	*met(c)	*
!LO:TX:a:i:t=2dum	!	!	!	!	!	!	!	!	!
4C/	A-	0ryy	.	0ryy	.	0ryy	.	0ryy	.
4C/	-gnus	.	.	.	.	.	.	.	.
4D/	De-	.	.	.	.	.	.	.	.
8D/	-i	.	.	.	.	.	.	.	.
!LO:TX:t=P:problem:kreska pseudotaktowa	!	!	!	!	!	!	!	!	!
8D/	qui	.	.	.	.	.	.	.	.
4E\	tol-	.	.	.	.	.	.	.	.
8E\	-lis	.	.	.	.	.	.	.	.
8E\	pec-	.	.	.	.	.	.	.	.
4.FT\	-ca-	.	.	.	.	.	.	.	.
16E\LL	.	.	.	.	.	.	.	.	.
!LO:TX:t=P:problem:kreska pseudotaktowa	!	!	!	!	!	!	!	!	!
16F\JJ	.	.	.	.	.	.	.	.	.
=11-	=11-	=11-	=11-	=11-	=11-	=11-	=11-	=11-	=11-
(>2G\	.	0ryy	.	0ryy	.	0ryy	.	0ryy	.
!LO:TX:t=P:problem:kreska pseudotaktowa	!	!	!	!	!	!	!	!	!
2A\)	.	.	.	.	.	.	.	.	.
8G,\	-ta	.	.	.	.	.	.	.	.
8G\	pec-	.	.	.	.	.	.	.	.
(>8G\	-ca	.	.	.	.	.	.	.	.
8F\)	.	.	.	.	.	.	.	.	.
8E\	.	.	.	.	.	.	.	.	.
8E\	.	.	.	.	.	.	.	.	.
!LO:TX:t=P:problem:kreska pseudotaktowa	!	!	!	!	!	!	!	!	!
[<4A\	mun-	.	.	.	.	.	.	.	.
!LO:LB:g=original	!	!	!	!	!	!	!	!	!
=12-	=12-	=12-	=12-	=12-	=12-	=12-	=12-	=12-	=12-
4A\]	.	0ryy	.	0ryy	.	0ryy	.	0ryy	.
4G#X\	.	.	.	.	.	.	.	.	.
!LO:TX:t=P:problem:kreska pseudotaktowa	!	!	!	!	!	!	!	!	!
!LO:TX:t=P:problem:kreska pseudotaktowa	!	!	!	!	!	!	!	!	!
2A\	-di	.	.	.	.	.	.	.	.
1rA	.	.	.	.	.	.	.	.	.
=13-	=13-	=13-	=13-	=13-	=13-	=13-	=13-	=13-	=13-
2r	.	0ryy	.	0ryy	.	0ryy	.	0ryy	.
8r	.	.	.	.	.	.	.	.	.
8A\	mi-	.	.	.	.	.	.	.	.
8A\L	-ſe-	.	.	.	.	.	.	.	.
!LO:TX:t=P:problem:kreska pseudotaktowa	!	!	!	!	!	!	!	!	!
8G\Jny	.	.	.	.	.	.	.	.	.
8F\	-re-	.	.	.	.	.	.	.	.
8F\	-re	.	.	.	.	.	.	.	.
4G\	no-	.	.	.	.	.	.	.	.
4C,</	-bis	.	.	.	.	.	.	.	.
!LO:TX:t=P:problem:kreska pseudotaktowa	!	!	!	!	!	!	!	!	!
[4<C/	mi-	.	.	.	.	.	.	.	.
=14-	=14-	=14-	=14-	=14-	=14-	=14-	=14-	=14-	=14-
4C/]	.	0ryy	.	0ryy	.	0ryy	.	0ryy	.
4BB/	-ſe-	.	.	.	.	.	.	.	.
4BB/	-re-	.	.	.	.	.	.	.	.
8C/L	-re	.	.	.	.	.	.	.	.
!LO:TX:t=P:problem:kreska pseudotaktowa	!	!	!	!	!	!	!	!	!
8E/J	.	.	.	.	.	.	.	.	.
2G\	no-	.	.	.	.	.	.	.	.
!LO:TX:t=P:problem:kreska pseudotaktowa	!	!	!	!	!	!	!	!	!
2GG/	.	.	.	.	.	.	.	.	.
=15-	=15-	=15-	=15-	=15-	=15-	=15-	=15-	=15-	=15-
!LO:TX:t=P:problem:podwójna kreska pseudotaktowa	!	!	!	!	!	!	!	!	!
0C;>	-bis.	0ryy	.	0ryy	.	0ryy	.	0ryy	.
!	!	!LO:LB:g=original	!	!LO:LB:g=original	!	!	!	!	!
=16||-	=16||-	=16||-	=16||-	=16||-	=16||-	=16||-	=16||-	=16||-	=16||-
*M2/1	*	*M2/1	*	*M2/1	*	*M2/1	*	*M2/1	*
*met(c)	*	*met(c)	*	*met(c)	*	*met(c)	*	*met(c)	*
!	!	!	!	!	!	!	!	!LO:TX:b:i:t=Agnus 2dum.	!
!LO:TX:t=P:problem:kreska pseudotaktowa	!	!LO:TX:t=P:problem:kreska pseudotaktowa	!	!	!	!	!	!LO:TX:t=P:problem:kreska pseudotaktowa	!
1r	.	1r	.	2r	.	2c/	A-	1r	.
!	!	!	!	!	!	!LO:TX:t=P:problem:kreska pseudotaktowa	!	!	!
.	.	.	.	4r	.	2d\	-gnus	.	.
!	!	!	!	!LO:TX:t=P:problem:kreska pseudotaktowa	!	!	!	!	!
.	.	.	.	[<4G/	A-	.	.	.	.
2C/	A-	2C/	A-	4G/]	.	2e\	De-	4r	.
.	.	.	.	2A/	-gnus	.	.	4cc\	Qui
!LO:TX:t=P:problem:kreska pseudotaktowa	!	!LO:TX:t=P:problem:kreska pseudotaktowa	!	!	!	!LO:TX:t=P:problem:kreska pseudotaktowa	!	!	!
2D\	-gnus	2D\	-gnus	.	.	2f\	.	8a\L	tol-
.	.	.	.	.	.	.	.	16b\L	.
.	.	.	.	.	.	.	.	16cc\JJ	.
.	.	.	.	2B\	De-	.	.	8dd\L	.
!	!	!	!	!	!	!	!	!LO:TX:t=P:problem:kreska pseudotaktowa	!
.	.	.	.	.	.	.	.	8cc\J	.
=17-	=17-	=17-	=17-	=17-	=17-	=17-	=17-	=17-	=17-
2E\	De-	(>2E\	De-	.	.	2g\	-i	4b\	.
.	.	.	.	2c\	.	.	.	4ee\	-lis
!LO:TX:t=P:problem:kreska pseudotaktowa	!	!LO:TX:t=P:problem:kreska pseudotaktowa	!	!	!	!LO:TX:t=P:problem:kreska pseudotaktowa	!	!	!
2F\	.	2F\)	.	.	.	2a\	.	4cc\	.
.	.	.	.	2d\	.	.	.	8b\L	pec-
!	!	!	!	!	!	!	!	!LO:TX:t=P:problem:kreska pseudotaktowa	!
.	.	.	.	.	.	.	.	8a\J	.
2G\	.	2G\	-i	.	.	2r	.	2b\	.
.	.	.	.	4e,<\	-i	.	.	.	.
!LO:TX:t=P:problem:kreska pseudotaktowa	!	!LO:TX:t=P:problem:kreska pseudotaktowa	!	!LO:TX:t=P:problem:kreska pseudotaktowa	!	!LO:TX:t=P:problem:kreska pseudotaktowa	!	!	!
!	!	!	!	!	!	!	!	!LO:LB:g=original	!
2A\	-i	2A\	.	2e\	qui	2a\	Qui	8cc\	-ca-
.	.	.	.	.	.	.	.	8a\	-ta
.	.	.	.	.	.	.	.	2cc\	mun-
=18-	=18-	=18-	=18-	=18-	=18-	=18-	=18-	=18-	=18-
0r	.	0r	.	2e\	tol-	2g\	tol-	.	.
.	.	.	.	.	.	.	.	4b\	-di
!	!	!	!	!LO:TX:t=P:problem:kreska pseudotaktowa	!	!LO:TX:t=P:problem:kreska pseudotaktowa	!	!	!
.	.	.	.	2d\	-lis	2f\	-lis	8.dd\L	pec-
.	.	.	.	.	.	.	.	16cc\Jk	.
.	.	.	.	.	.	.	.	8.a\L	.
!	!	!	!	!	!	!	!	!LO:TX:t=P:problem:kreska pseudotaktowa	!
.	.	.	.	.	.	.	.	16b\Jk	.
.	.	.	.	2c\	pec-	2e\	pec-	4cc\	-ca-
.	.	.	.	.	.	.	.	4.a\	-ta
!	!	!	!	!LO:TX:t=P:problem:kreska pseudotaktowa	!	!LO:TX:t=P:problem:kreska pseudotaktowa	!	!	!
.	.	.	.	2B\	-ca-	2d\	-ca-	.	.
.	.	.	.	.	.	.	.	8g\	.
.	.	.	.	.	.	.	.	2g\	mun-
!	!	!	!	!	!	!LO:LB:g=original	!	!	!
=19-	=19-	=19-	=19-	=19-	=19-	=19-	=19-	=19-	=19-
!LO:TX:t=P:problem:kreska pseudotaktowa	!	!LO:TX:t=P:problem:kreska pseudotaktowa	!	!	!	!	!	!	!
1r	.	1r	.	2A/	-ta	2c/	-ta	.	.
.	.	.	.	.	.	.	.	4f#X/	.
!	!	!	!	!	!	!	!	!LO:TX:t=P:problem:kreska pseudotaktowa	!
.	.	.	.	2.G/	mun-	4B/	mun-	2g,</	-di
!	!	!	!	!	!	!LO:TX:t=P:problem:kreska pseudotaktowa	!	!	!
.	.	.	.	.	.	4d/	-di	.	.
2r	.	2r	.	.	.	8B\L	Do-	2g/	Do-
.	.	.	.	.	.	16c\L	.	.	.
.	.	.	.	.	.	16d\J	.	.	.
.	.	.	.	4c\	-di	8e\	.	.	.
.	.	.	.	.	.	8d\J	.	.	.
!LO:TX:t=P:problem:kreska pseudotaktowa	!	!LO:TX:t=P:problem:kreska pseudotaktowa	!	!	!	!	!	!LO:TX:t=P:problem:kreska pseudotaktowa	!
2A\	Do-	2A\	Do-	8A\L	Do-	4c/	.	2a\	-na
.	.	.	.	16B\L	.	.	.	.	.
.	.	.	.	16c\J	.	.	.	.	.
.	.	.	.	8d\	-na	8B/L	-na	.	.
!	!	!	!	!LO:TX:t=P:problem:kreska pseudotaktowa	!	!LO:TX:t=P:problem:kreska pseudotaktowa	!	!	!
.	.	.	.	8c\J	.	8A/J	.	.	.
=20-	=20-	=20-	=20-	=20-	=20-	=20-	=20-	=20-	=20-
2G,\	-na	2G\	-na	4B\	no-	2d\	no-	2b\	no-
.	.	.	.	8A\L	.	.	.	.	.
.	.	.	.	8G\J	.	.	.	.	.
!LO:TX:t=P:problem:kreska pseudotaktowa	!	!LO:TX:t=P:problem:kreska pseudotaktowa	!	!	!	!LO:TX:t=P:problem:kreska pseudotaktowa	!	!	!
!	!	!	!	!LO:TX:t=P:problem:kreska pseudotaktowa	!	!	!	!	!
2F\	no-	2F\	no-	2A/	-bis	2f\	-bis	1cc	.
!	!	!LO:LB:g=original	!	!LO:LB:g=original	!	!	!	!	!
2E\	-bis	2E\	-bis	4G/	pa-	2g\	pa-	.	.
.	.	.	.	2c\	.	.	.	.	.
!LO:TX:t=P:problem:kreska pseudotaktowa	!	!LO:TX:t=P:problem:kreska pseudotaktowa	!	!	!	!LO:TX:t=P:problem:kreska pseudotaktowa	!	!LO:TX:t=P:problem:kreska pseudotaktowa	!
2D/	.	2D/	pa-	.	.	2f\	.	2dd\	.
!	!	!	!	!LO:TX:t=P:problem:kreska pseudotaktowa	!	!	!	!	!
.	.	.	.	4B\	-cem	.	.	.	.
!LO:LB:g=original	!	!	!	!	!	!	!	!	!
=21-	=21-	=21-	=21-	=21-	=21-	=21-	=21-	=21-	=21-
2.C/	pa-	2.C/	-cem	2c\	.	4e,<\	-cem	2ee\	-bis
.	.	.	.	.	.	4g\	do-	.	.
!	!	!	!	!	!	!	!	!LO:TX:t=P:problem:kreska pseudotaktowa	!
.	.	.	.	4c\	do-	8e\L	.	2r	.
.	.	.	.	.	.	16f\L	.	.	.
.	.	.	.	.	.	16g\JJ	.	.	.
!LO:TX:t=P:problem:kreska pseudotaktowa	!	!LO:TX:t=P:problem:kreska pseudotaktowa	!	!	!	!	!	!	!
4F\	.	4F\	do-	8A\L	-na	8a\L	.	.	.
!	!	!	!	!	!	!LO:TX:t=P:problem:kreska pseudotaktowa	!	!	!
.	.	.	.	16B\L	.	8g\J	.	.	.
!	!	!	!	!LO:TX:t=P:problem:kreska pseudotaktowa	!	!	!	!	!
.	.	.	.	16c\JJ	.	.	.	.	.
8D\L	.	8D\L	-na	8d\L	.	4f\	.	2rcc	.
16E\L	.	16E\L	.	8c\J	.	.	.	.	.
16F\JJ	.	16F\JJ	.	.	.	.	.	.	.
8G\L	.	8G\L	.	4B\	no-	8e\L	-na	.	.
8F\J	.	8F\J	.	.	.	8d\J	.	.	.
!	!	!	!	!	!	!LO:TX:t=P:problem:kreska pseudotaktowa	!	!LO:TX:t=P:problem:kreska pseudotaktowa	!
4E/	.	4E\	no-	8A\L	.	2g\	no-	2ee\	do-
.	.	.	.	8G\J	.	.	.	.	.
8D/L	.	8D\L	-bis	2c\	-bis	.	.	.	.
!LO:TX:t=P:problem:kreska pseudotaktowa	!	!LO:TX:t=P:problem:kreska pseudotaktowa	!	!	!	!	!	!	!
8C/J	.	8C\J	.	.	.	.	.	.	.
=22-	=22-	=22-	=22-	=22-	=22-	=22-	=22-	=22-	=22-
2G\	.	2.G\	pa-	.	.	2.g\	-bis	1dd	-na
.	.	.	.	8B\L	pa-	.	.	.	.
.	.	.	.	8A\J	.	.	.	.	.
!LO:TX:t=P:problem:kreska pseudotaktowa	!	!	!	!	!	!	!	!	!
2GG/	.	.	.	4.B\	-cem	.	.	.	.
!	!	!LO:TX:t=P:problem:kreska pseudotaktowa	!	!	!	!LO:TX:t=P:problem:kreska pseudotaktowa	!	!	!
.	.	4GG/	-cem	.	.	4g\	.	.	.
!	!	!	!	!LO:TX:t=P:problem:kreska pseudotaktowa	!	!	!	!	!
.	.	.	.	8A\	.	.	.	.	.
2C,</	-cem	2C/	.	2.G/	do-	4e\	do-	2cc\	no-
.	.	.	.	.	.	4e\	-na	.	.
!LO:TX:t=P:problem:kreska pseudotaktowa	!	!LO:TX:t=P:problem:kreska pseudotaktowa	!	!	!	!	!	!LO:TX:t=P:problem:kreska pseudotaktowa	!
2GG/	Do-	2GG/	.	.	.	8d\L	no-	2b\	-bis
.	.	.	.	.	.	16e\L	.	.	.
.	.	.	.	.	.	16f\J	.	.	.
!	!	!	!	!LO:TX:t=P:problem:kreska pseudotaktowa	!	!	!	!	!
.	.	.	.	4G/	-na	8g\	.	.	.
!	!	!	!	!	!	!LO:TX:t=P:problem:kreska pseudotaktowa	!	!	!
.	.	.	.	.	.	8f\J	.	.	.
!	!	!	!	!	!	!LO:LB:g=original	!	!	!
=23-	=23-	=23-	=23-	=23-	=23-	=23-	=23-	=23-	=23-
2AA,</	-na	2AA/	do-	4c\	no-	4.e\	-bis	2a\	pa-
.	.	.	.	4c\	-bis	.	.	.	.
.	.	.	.	.	.	8e\	.	.	.
!LO:TX:t=P:problem:kreska pseudotaktowa	!	!LO:TX:t=P:problem:kreska pseudotaktowa	!	!	!	!	!	!LO:TX:t=P:problem:kreska pseudotaktowa	!
2BB/	no-	2BB/	-na	8B\L	pa-	4d\	pa-	2g/	-cem
.	.	.	.	16c\L	.	.	.	.	.
.	.	.	.	16d\JJ	.	.	.	.	.
!	!	!	!	!	!	!LO:TX:t=P:problem:kreska pseudotaktowa	!	!	!
.	.	.	.	8e\L	.	4g\	-cem	.	.
!	!	!	!	!LO:TX:t=P:problem:kreska pseudotaktowa	!	!	!	!	!
.	.	.	.	8d\J	.	.	.	.	.
!	!	!	!	!	!	!	!	!LO:LB:g=original	!
2C,</	-bis	2C/	no-	4c\	-cem	8e\L	do-	4r	.
.	.	.	.	.	.	16f\L	.	.	.
.	.	.	.	.	.	16g\JJ	.	.	.
.	.	.	.	4e\	.	8a\L	.	4cc\	do-
.	.	.	.	.	.	8g\J	.	.	.
!LO:TX:t=P:problem:kreska pseudotaktowa	!	!	!	!	!	!	!	!	!
!LO:SIC:v:t=custos E	!	!LO:TX:t=P:problem:kreska pseudotaktowa	!	!	!	!	!	!	!
2D\	pa-	2D/	-bis	4d\	do-	4.f\	-na	8a\L	.
.	.	.	.	.	.	.	.	16b\L	.
.	.	.	.	.	.	.	.	16cc\JJ	.
!	!	!	!	!LO:TX:t=P:problem:kreska pseudotaktowa	!	!	!	!	!
.	.	.	.	4A/	-na	.	.	8dd\L	-na
!	!	!	!	!	!	!LO:TX:t=P:problem:kreska pseudotaktowa	!	!LO:TX:t=P:problem:kreska pseudotaktowa	!
.	.	.	.	.	.	8f\	.	8cc\J	.
!LO:LB:g=original	!	!	!	!	!	!	!	!	!
=24-	=24-	=24-	=24-	=24-	=24-	=24-	=24-	=24-	=24-
2E\	.	2E\	no-	4e\	no-	4g\	do-	4b\	no-
.	.	.	.	4B\	-bis	4.e\	-na	4g\	.
!LO:TX:t=P:problem:kreska pseudotaktowa	!	!LO:TX:t=P:problem:kreska pseudotaktowa	!	!	!	!	!	!	!
2C/	.	2C/	-bis	4e\	no-	.	.	4g\	-bis
.	.	.	.	.	.	8e\	no-	.	.
!	!	!	!	!LO:TX:t=P:problem:kreska pseudotaktowa	!	!LO:TX:t=P:problem:kreska pseudotaktowa	!	!	!
.	.	.	.	4G/	-bis	4e\	-bis	2cc\	pa-
!	!	!	!	!LO:LB:g=original	!	!	!	!	!
2G\	.	2.GG/	pa-	2.G/	pa-	2.d\	pa-	.	.
.	.	.	.	.	.	.	.	8b\L	.
.	.	.	.	.	.	.	.	8a\J	.
!LO:TX:t=P:problem:kreska pseudotaktowa	!	!	!	!	!	!	!	!	!
2GG/	.	.	.	.	.	.	.	4.b\	.
.	.	4GG/	-cem	4G/	-cem	4d\	.	.	.
!	!	!	!	!	!	!	!	!LO:TX:t=P:problem:kreska pseudotaktowa	!
.	.	.	.	.	.	.	.	8b\	-cem
=25-	=25-	=25-	=25-	=25-	=25-	=25-	=25-	=25-	=25-
!	!	!LO:TX:t=P:problem:końcowa kreska pseudotaktowa	!	!LO:TX:t=P:problem:końcowa kreska pseudotaktowa	!	!LO:TX:t=P:problem:końcowa kreska pseudotaktowa	!	!LO:TX:t=P:problem:końcowa kreska pseudotaktowa	!
!	!	!	!	!	!	!LO:TX:a:t=P:problem:w źródle ta adnotacja zapisana na pięciolinii, za ostatnim taktem	!	!LO:TX:a:t=P:problem:w źródle ta adnotacja zapisana na pięciolinii, za ostatnim taktem	!
!LO:TX:b:i:t=O. ad M. D. Gm.	!	!LO:TX:b:i:t=O. ad M. D. Gm.	!	!LO:TX:b:i:t=O. ad M. D. Gm.	!	!LO:TX:a:i:t=O. ad M. D. Gm.	!	!LO:TX:a:i:t=O. ad M. D. Gm.	!
0C;>	-cem.	0C	.	0G	.	0e	-cem	0cc	.
=-	=-	=-	=-	=-	=-	=-	=-	=-	=-
*-	*-	*-	*-	*-	*-	*-	*-	*-	*-
!!!system-decoration: [(s1,s2,s3,s4,s5)]
!!!RDF**kern: > = above
!!!RDF**kern: < = below
!!!EED: Antoni Szymański
!!!EST: 2021-07-26
!!!ENC: Andrzej Gręziak
!!!END: 2021-07-05
